X:3072
T:Clare Jig
R:double jig
M:6/8
Q:130
K:Em
G3G2B|AGE GED|~G3 AGE|GED D2E|
G3G2B|AGE GAB|c2A BGE|1 DED{E}D3:|2 DED{E}D2B|:
c2A B2A|AGE GAB|cBA BGE|DED D2B|
c2A B2A|AGE GAB|c2A BGE|1 DED D2B :|2 DED {E}D3|


